assets/svg/midjourney.svg

<svg width="50" height="50" viewBox="0 0 50 50" fill="none" xmlns="http://www.w3.org/2000/svg">
<rect width="50" height="50" fill="#D9D9D9"/>
<path d="M47.0429 36.0812C47.1723 36.4197 47.0662 36.7031 46.7795 36.9359C44.0931 39.1164 41.2734 41.0943 38.2043 42.6948L35.6417 44.0292C36.1704 44.4549 36.767 44.5746 37.4003 44.5507C38.0935 44.5245 38.6744 44.2037 39.2109 43.7909C39.8519 43.2978 40.4582 42.7522 41.1318 42.3102C42.7626 41.2396 44.5204 41.3364 46.063 42.5435C46.7183 43.0563 47.3206 43.642 48.0005 44.1167C48.3293 44.3462 48.7502 44.4713 49.1537 44.5612L49.243 44.5806C49.7327 44.6846 50.0303 44.9333 49.9976 45.3596C49.9652 45.7827 49.6328 46.0298 49.1308 45.9971C48.0674 45.9279 47.2337 45.3747 46.4524 44.706C45.9646 44.2885 45.4934 43.8434 44.967 43.4812C43.9907 42.8097 42.9546 42.7902 41.9601 43.4348C41.3738 43.8147 40.8408 44.2795 40.2922 44.7167C39.408 45.4213 38.4538 45.9401 37.2895 45.9578C36.0124 45.9772 34.9848 45.3995 34.0433 44.6055C33.7067 44.3215 33.3731 44.0334 33.0301 43.7575C31.7437 42.7227 30.4259 42.7232 29.135 43.7582C28.9846 43.8788 28.8357 44.0014 28.6872 44.1245L28.3904 44.3708C28.1429 44.5758 27.8941 44.7793 27.6387 44.9739C26.0586 46.1781 24.249 46.2356 22.6116 45.108C22.0159 44.6977 21.4729 44.2096 20.9047 43.7583C19.6137 42.733 18.5422 42.7362 17.2281 43.754L17.1207 43.8374L16.7985 44.0885C16.3686 44.4233 15.9361 44.7551 15.4821 45.0528C13.771 46.1746 12.0295 46.1277 10.329 45.0434C9.62527 44.5948 8.98282 44.0485 8.31622 43.5405L8.21606 43.4646C7.95 43.2643 7.68718 43.0592 7.41404 42.8691C7.03303 42.604 6.62298 42.5298 6.21053 42.7824C5.48165 43.2286 4.76134 43.689 4.03945 44.1467C3.35724 44.5793 2.69804 45.0547 1.98862 45.4352C1.60435 45.6413 1.14251 45.7372 0.7044 45.7937C0.296697 45.8461 0.0162027 45.5408 0.000676123 45.1557C-0.0146276 44.7762 0.231091 44.5379 0.612916 44.4285L0.635096 44.4223C1.04109 44.3128 1.45912 44.1739 1.81126 43.9506C2.80495 43.3207 3.76772 42.6412 4.74168 41.9797C4.76924 41.9609 4.78534 41.9253 4.8184 41.8825L4.21378 40.7297C4.01201 40.3449 3.81035 39.9595 3.60981 39.5736C3.25802 38.8964 3.48694 38.4422 4.24202 38.3878C6.27766 38.2412 8.31484 38.1152 10.3515 37.9831L22.0742 37.2244C24.8451 37.0447 27.6157 36.8632 30.3865 36.6829C34.294 36.4286 38.2015 36.1748 42.109 35.9208C43.1481 35.8534 44.1872 35.7875 45.2262 35.7191L46.2651 35.6495C46.623 35.6252 46.9102 35.7342 47.0429 36.0812ZM44.0702 37.2784L44.0354 37.1924L5.24495 39.7107L5.34075 39.8911C5.59223 40.3662 5.81479 40.7953 6.05809 41.212C6.08053 41.2504 6.15894 41.2582 6.24112 41.261L6.32511 41.2631C6.33372 41.2633 6.34213 41.2637 6.35032 41.264L6.37415 41.2654C6.71122 41.2905 7.07979 41.2307 7.37904 41.3497C7.85692 41.5399 8.31341 41.8124 8.73474 42.1132C9.48867 42.6513 10.1861 43.2714 10.9495 43.7942C12.306 44.7231 13.5836 44.6955 14.9181 43.7536C15.4813 43.3562 16.0155 42.9171 16.5734 42.5118C18.318 41.2444 19.9707 41.2707 21.6737 42.5939C22.1714 42.9806 22.6457 43.3979 23.1425 43.7857C24.3881 44.7581 25.6519 44.7616 26.8912 43.7957C27.3039 43.474 27.6969 43.1266 28.1019 42.7948C29.939 41.2898 31.8012 41.1447 33.6077 42.4868L33.6624 42.528C34.2406 42.9675 34.6709 42.9453 35.2471 42.6557L35.5276 42.5143C38.0972 41.2151 40.6183 39.8345 42.946 38.1188C43.3226 37.8412 43.6955 37.5586 44.0702 37.2784ZM8.05037 4.13298C12.2488 6.04297 16.0191 8.61229 19.4459 11.7005C23.7097 15.5433 27.0701 20.081 29.5521 25.2708C30.8585 28.0025 31.8745 30.8397 32.3411 33.8521L32.3636 33.9998L32.3974 34.2357C32.3981 34.8187 31.9349 35.1612 31.4522 34.9646C29.0553 33.9879 26.5803 33.3105 24.0227 32.9237C20.6427 32.4125 17.3053 32.5396 14.0193 33.5373C11.8402 34.1989 9.76739 35.1015 7.84112 36.333C7.48548 36.5604 7.1084 36.5207 6.87622 36.2424C6.63505 35.9533 6.63537 35.6046 6.91399 35.2995C8.92638 33.0963 10.0972 30.4504 10.8736 27.6051C11.6321 24.8253 11.909 21.9847 11.7391 19.1109C11.6115 16.9509 11.0978 14.8609 10.4255 12.8092C9.55591 10.155 8.42734 7.61786 7.06665 5.18403C6.84436 4.78637 6.84851 4.47651 7.07325 4.22197C7.30585 3.95852 7.60543 3.93051 8.05037 4.13298ZM20.9938 9.09437C21.3831 9.20889 21.9074 9.32185 22.4007 9.51542C24.3701 10.2884 26.0668 11.5147 27.6832 12.8545C30.3101 15.032 32.7155 17.4404 34.8665 20.0967C36.3637 21.9455 37.5919 23.9791 38.7116 26.0783C39.9812 28.4588 41.0746 30.9196 42.0027 33.4548L42.0671 33.6318C42.0916 33.6991 42.1168 33.7662 42.1394 33.8343C42.2372 34.1273 42.225 34.4109 41.9973 34.6348C41.7647 34.8636 41.486 34.8786 41.1916 34.7626L41.1711 34.7542C40.7492 34.5794 40.3216 34.418 39.9005 34.2414L39.7204 34.1648C38.5357 33.6519 37.3181 33.5494 36.0642 33.8367C35.9486 33.8632 35.8314 33.8832 35.7142 33.9014C35.249 33.9737 34.9586 33.7903 34.8315 33.336C33.6102 28.9667 31.8883 24.8061 29.7085 20.8364L29.5994 20.6388C28.194 18.1065 26.5849 15.7253 24.4939 13.702C23.2594 12.5074 21.9602 11.3936 20.5252 10.4476C20.1928 10.2284 20.0682 9.92424 20.1777 9.59218C20.2854 9.26553 20.5369 9.13734 20.9938 9.09437ZM9.30569 6.32178C9.30973 6.43232 9.3391 6.51868 9.37894 6.59967C10.2914 8.45545 11.0848 10.3615 11.7293 12.3285C12.3407 14.1944 12.8096 16.0962 13.034 18.0517C13.2854 20.2408 13.182 22.424 12.8842 24.6012C12.4921 27.4683 11.7036 30.2106 10.3434 32.7719L10.1852 33.0704C10.106 33.2201 10.0264 33.3708 9.94537 33.5238C9.99559 33.5375 10.021 33.5539 10.0374 33.5474C10.1806 33.4903 10.3232 33.4312 10.4642 33.3688C13.351 32.0911 16.359 31.3194 19.5182 31.2401C23.1258 31.1496 26.6199 31.8053 30.0321 32.9475L30.265 33.0256C30.4338 33.0814 30.6139 33.139 30.8471 33.2152C29.4648 27.1141 26.5994 21.8701 22.7372 17.1527C19.014 12.6052 14.4856 9.05195 9.30569 6.32178ZM26.447 13.7189L26.4927 13.7711L26.5836 13.8732C26.6186 13.913 26.6506 13.9505 26.6804 13.9895C26.8922 14.2662 27.1086 14.5397 27.3261 14.8127L27.6812 15.2582C28.2149 15.9286 28.7416 16.6036 29.2051 17.3203C32.1357 21.8528 34.2907 26.7538 35.8618 31.9187L35.9092 32.0753C35.9908 32.3458 36.1029 32.4217 36.3643 32.3819L36.3824 32.379C37.5576 32.1817 38.7062 32.2842 39.82 32.7168L39.8776 32.7394C39.984 32.782 40.0977 32.8057 40.304 32.8663C38.7951 29.0703 37.0119 25.5367 34.7555 22.2427C32.8043 19.3943 27.5795 14.3373 26.447 13.7189Z" fill="#1A222D"/>
</svg>

<svg xmlns="http://www.w3.org/2000/svg" width="50" height="50" fill="none" viewBox="0 0 50 50"><path fill="#d9d9d9" d="M0 0h50v50H0z"/><path fill="#1a222d" d="M47.043 36.081c.13.339.023.622-.264.855-2.686 2.18-5.506 4.158-8.575 5.759l-2.562 1.334c.528.426 1.125.546 1.758.522.694-.026 1.274-.347 1.81-.76.642-.493 1.248-1.039 1.922-1.48 1.63-1.071 3.388-.975 4.931.233.655.512 1.258 1.098 1.938 1.573.328.23.75.354 1.153.444l.089.02c.49.104.787.352.755.779-.033.423-.365.67-.867.637-1.064-.07-1.897-.622-2.679-1.291-.487-.418-.959-.863-1.485-1.225-.976-.671-2.012-.69-3.007-.046-.586.38-1.12.844-1.668 1.282-.884.704-1.838 1.223-3.003 1.24-1.277.02-2.304-.557-3.246-1.352-.336-.283-.67-.572-1.013-.847-1.286-1.035-2.604-1.035-3.895 0q-.226.18-.448.366l-.297.247q-.37.309-.751.603c-1.58 1.204-3.39 1.262-5.027.134-.596-.41-1.14-.898-1.707-1.35-1.291-1.025-2.363-1.022-3.677-.004l-.107.083-.322.252c-.43.334-.863.666-1.317.964-1.711 1.122-3.452 1.075-5.153-.01-.704-.448-1.346-.995-2.013-1.502l-.1-.076c-.266-.2-.529-.406-.802-.596-.381-.265-.791-.34-1.203-.087-.73.447-1.45.907-2.172 1.365-.682.432-1.341.908-2.05 1.288-.385.206-.846.302-1.285.359-.407.052-.688-.253-.703-.638-.016-.38.23-.618.612-.727l.022-.007c.406-.11.824-.248 1.176-.471.994-.63 1.957-1.31 2.93-1.971.028-.02.044-.055.077-.097l-.604-1.153q-.303-.577-.604-1.156c-.352-.678-.123-1.132.632-1.186 2.036-.147 4.073-.273 6.11-.405l11.722-.759 8.313-.541 11.722-.762q1.56-.1 3.117-.202l1.04-.07c.357-.024.644.085.777.432m-2.973 1.197-.035-.086-38.79 2.519.096.18c.251.475.474.904.717 1.321.023.038.1.046.183.049l.084.002.025.001.024.001c.337.026.706-.034 1.005.085.478.19.934.462 1.356.763.754.538 1.451 1.158 2.215 1.681 1.356.93 2.634.902 3.968-.04.563-.398 1.098-.837 1.655-1.242 1.745-1.268 3.398-1.241 5.1.082.498.387.973.804 1.47 1.192 1.245.972 2.509.976 3.748.01.413-.322.806-.67 1.21-1.001 1.838-1.505 3.7-1.65 5.507-.308l.054.041c.579.44 1.009.417 1.585.128l.28-.142c2.57-1.299 5.091-2.68 7.419-4.395q.564-.418 1.124-.84M8.05 4.133c4.199 1.91 7.97 4.48 11.396 7.568 4.264 3.842 7.624 8.38 10.106 13.57 1.306 2.732 2.323 5.569 2.79 8.581l.022.148.033.236c.001.583-.462.925-.945.729a32.5 32.5 0 0 0-7.43-2.041c-3.38-.511-6.717-.384-10.003.613-2.179.662-4.252 1.565-6.178 2.796-.356.227-.733.188-.965-.09-.241-.29-.24-.638.038-.944 2.012-2.203 3.183-4.849 3.96-7.694.758-2.78 1.035-5.62.865-8.494-.128-2.16-.641-4.25-1.314-6.302a43 43 0 0 0-3.358-7.625c-.223-.398-.218-.707.006-.962.233-.263.532-.291.977-.089m12.944 4.961c.39.115.913.228 1.407.421 1.97.773 3.666 2 5.282 3.34a51.5 51.5 0 0 1 7.184 7.242c1.497 1.848 2.725 3.882 3.845 5.981a58 58 0 0 1 3.29 7.377l.065.177q.038.1.072.202c.098.293.086.577-.142.8-.232.23-.511.245-.805.129l-.02-.009c-.423-.175-.85-.336-1.271-.513l-.18-.076a5.74 5.74 0 0 0-3.657-.328 5 5 0 0 1-.35.064c-.465.073-.755-.11-.883-.565a58.8 58.8 0 0 0-5.123-12.5l-.109-.197c-1.405-2.532-3.014-4.914-5.105-6.937-1.235-1.195-2.534-2.308-3.969-3.254-.332-.22-.457-.524-.347-.856.107-.326.359-.455.816-.498M9.306 6.322a.7.7 0 0 0 .073.278 44 44 0 0 1 2.35 5.729c.612 1.865 1.08 3.767 1.305 5.723.251 2.189.148 4.372-.15 6.55-.392 2.866-1.18 5.609-2.54 8.17l-.159.298-.24.454c.05.014.076.03.092.023q.216-.085.427-.178c2.887-1.278 5.895-2.05 9.054-2.129 3.608-.09 7.102.565 10.514 1.707l.233.079.582.19c-1.382-6.102-4.248-11.346-8.11-16.063-3.723-4.548-8.251-8.101-13.431-10.831m17.141 7.397.046.052.09.102q.054.06.097.117.32.414.646.823l.355.445c.534.67 1.06 1.346 1.524 2.062 2.93 4.533 5.086 9.434 6.657 14.599l.047.156c.082.27.194.347.455.307l.018-.003a6.4 6.4 0 0 1 3.438.338l.058.022c.106.043.22.067.426.127-1.509-3.796-3.292-7.33-5.549-10.623-1.95-2.849-7.176-7.906-8.308-8.524"/></svg>
